assets/images/img_midm.svg

<svg width="72" height="72" viewBox="0 0 72 72" fill="none" xmlns="http://www.w3.org/2000/svg">
<circle cx="36" cy="36" r="35.25" stroke="black" stroke-width="1.5"/>
<path d="M14.1328 29.2734L17.666 37.9043H17.8066L21.3398 29.2734H24.6094V42H22.043V33.668H21.9375L18.6152 41.9473H16.8574L13.5352 33.6328H13.4297V42H10.8633V29.2734H14.1328ZM26.7012 32.4551H29.3027V42H26.7012V32.4551ZM28.002 31.207C27.7441 31.207 27.5068 31.1484 27.29 31.0312C27.0732 30.9082 26.9004 30.7471 26.7715 30.5479C26.6426 30.3428 26.5781 30.123 26.5781 29.8887C26.5781 29.6484 26.6426 29.4258 26.7715 29.2207C26.9004 29.0156 27.0732 28.8545 27.29 28.7373C27.5068 28.6143 27.7441 28.5527 28.002 28.5527C28.2539 28.5527 28.4883 28.6143 28.7051 28.7373C28.9219 28.8545 29.0918 29.0156 29.2148 29.2207C29.3438 29.4258 29.4082 29.6484 29.4082 29.8887C29.4082 30.123 29.3438 30.3428 29.2148 30.5479C29.0918 30.7471 28.9219 30.9082 28.7051 31.0312C28.4883 31.1484 28.2539 31.207 28.002 31.207ZM32.8535 42.1582C32.584 42.1582 32.335 42.0938 32.1064 41.9648C31.8779 41.8301 31.6963 41.6514 31.5615 41.4287C31.4326 41.2002 31.3711 40.9512 31.377 40.6816C31.3711 40.418 31.4326 40.1748 31.5615 39.9521C31.6963 39.7236 31.8779 39.5449 32.1064 39.416C32.335 39.2871 32.584 39.2227 32.8535 39.2227C33.1113 39.2227 33.3516 39.2871 33.5742 39.416C33.7969 39.5449 33.9756 39.7236 34.1104 39.9521C34.2451 40.1748 34.3125 40.418 34.3125 40.6816C34.3125 40.9512 34.2451 41.2002 34.1104 41.4287C33.9756 41.6514 33.7969 41.8301 33.5742 41.9648C33.3516 42.0938 33.1113 42.1582 32.8535 42.1582ZM32.8535 35.4609C32.584 35.4609 32.335 35.3965 32.1064 35.2676C31.8779 35.1328 31.6963 34.9541 31.5615 34.7314C31.4326 34.5029 31.3711 34.2539 31.377 33.9844C31.3711 33.7207 31.4326 33.4775 31.5615 33.2549C31.6963 33.0264 31.8779 32.8477 32.1064 32.7188C32.335 32.5898 32.584 32.5254 32.8535 32.5254C33.1113 32.5254 33.3516 32.5898 33.5742 32.7188C33.7969 32.8477 33.9756 33.0264 34.1104 33.2549C34.2451 33.4775 34.3125 33.7207 34.3125 33.9844C34.3125 34.2539 34.2451 34.5029 34.1104 34.7314C33.9756 34.9541 33.7969 35.1328 33.5742 35.2676C33.3516 35.3965 33.1113 35.4609 32.8535 35.4609ZM39.9199 42.1582C39.1816 42.1582 38.5195 41.9678 37.9336 41.5869C37.3477 41.2002 36.8848 40.6377 36.5449 39.8994C36.2051 39.1553 36.0352 38.2676 36.0352 37.2363C36.0352 36.1816 36.208 35.2881 36.5537 34.5557C36.8994 33.8174 37.3652 33.2637 37.9512 32.8945C38.543 32.5195 39.1992 32.332 39.9199 32.332C40.6406 32.332 41.2178 32.499 41.6514 32.833C42.0908 33.167 42.416 33.5742 42.627 34.0547H42.7148V29.2734H45.3164V42H42.75V40.4707H42.627C42.4102 40.9453 42.082 41.3467 41.6426 41.6748C41.2031 41.9971 40.6289 42.1582 39.9199 42.1582ZM38.707 37.1924C38.707 38.0654 38.8799 38.7656 39.2256 39.293C39.5771 39.8145 40.0781 40.0781 40.7285 40.084C41.1562 40.084 41.5225 39.9668 41.8271 39.7324C42.1318 39.4922 42.3633 39.1582 42.5215 38.7305C42.6855 38.2969 42.7676 37.793 42.7676 37.2188C42.7676 36.3516 42.5889 35.666 42.2314 35.1621C41.874 34.6582 41.373 34.4062 40.7285 34.4062C40.084 34.4062 39.5859 34.6611 39.2344 35.1709C38.8828 35.6748 38.707 36.3486 38.707 37.1924ZM47.4082 32.4551H49.8867V34.125H49.9922C50.1973 33.5625 50.5312 33.123 50.9941 32.8066C51.457 32.4902 52.0078 32.332 52.6465 32.332C53.2969 32.332 53.8535 32.4932 54.3164 32.8154C54.7793 33.1377 55.0898 33.5742 55.248 34.125H55.3359C55.5352 33.5801 55.8926 33.1465 56.4082 32.8242C56.9238 32.4961 57.5273 32.332 58.2188 32.332C58.8105 32.332 59.332 32.4609 59.7832 32.7188C60.2402 32.9707 60.5947 33.3428 60.8467 33.835C61.0986 34.3213 61.2246 34.9043 61.2246 35.584V42H58.623V36.0938C58.6289 35.5664 58.4912 35.165 58.21 34.8896C57.9346 34.6143 57.5742 34.4766 57.1289 34.4766C56.6484 34.4766 56.2676 34.6318 55.9863 34.9424C55.7109 35.2471 55.5762 35.6543 55.582 36.1641V42H53.0508V36.0234C53.0566 35.5547 52.9219 35.1797 52.6465 34.8984C52.377 34.6172 52.0195 34.4766 51.5742 34.4766C51.2812 34.4766 51.0146 34.5527 50.7744 34.7051C50.5342 34.8516 50.3467 35.0625 50.2119 35.3379C50.0771 35.6074 50.0098 35.918 50.0098 36.2695V42H47.4082V32.4551Z" fill="black"/>
</svg>

<svg xmlns="http://www.w3.org/2000/svg" width="72" height="72" fill="none"><circle cx="36" cy="36" r="35.25" stroke="#000" stroke-width="1.5"/><path fill="#000" d="m14.133 29.273 3.533 8.631h.14l3.534-8.63h3.27V42h-2.567v-8.332h-.105l-3.323 8.28h-1.758l-3.322-8.315h-.105V42h-2.567V29.273h3.27ZM26.7 32.455h2.602V42H26.7v-9.545Zm1.301-1.248c-.258 0-.495-.059-.712-.176a1.47 1.47 0 0 1-.518-.483 1.232 1.232 0 0 1 0-1.327c.128-.205.301-.366.518-.484.217-.123.454-.184.712-.184.252 0 .486.061.703.184.217.118.387.279.51.484a1.23 1.23 0 0 1 0 1.327c-.123.2-.293.36-.51.483a1.455 1.455 0 0 1-.703.176Zm4.851 10.951c-.269 0-.518-.064-.747-.193a1.54 1.54 0 0 1-.545-.536 1.43 1.43 0 0 1-.184-.747 1.368 1.368 0 0 1 .184-.73 1.45 1.45 0 0 1 .545-.536 1.495 1.495 0 0 1 1.468 0c.223.129.402.308.536.536.135.223.203.466.203.73 0 .27-.068.518-.203.747a1.564 1.564 0 0 1-.536.536 1.413 1.413 0 0 1-.72.193Zm0-6.697c-.269 0-.518-.064-.747-.193a1.542 1.542 0 0 1-.545-.537 1.429 1.429 0 0 1-.184-.747 1.367 1.367 0 0 1 .184-.73 1.45 1.45 0 0 1 .545-.535 1.494 1.494 0 0 1 1.468 0c.223.129.402.307.536.536.135.222.203.466.203.73 0 .269-.068.518-.203.746a1.565 1.565 0 0 1-.536.537 1.414 1.414 0 0 1-.72.193Zm7.067 6.697c-.738 0-1.4-.19-1.986-.571-.586-.387-1.05-.95-1.39-1.688-.339-.744-.509-1.631-.509-2.663 0-1.054.173-1.948.519-2.68.345-.739.811-1.292 1.397-1.661a3.603 3.603 0 0 1 1.969-.563c.72 0 1.298.167 1.731.501.44.334.765.741.976 1.222h.088v-4.782h2.601V42H42.75v-1.53h-.123a3.091 3.091 0 0 1-.984 1.205c-.44.322-1.014.483-1.723.483Zm-1.213-4.966c0 .873.173 1.574.519 2.101.351.522.852.785 1.502.791.428 0 .794-.117 1.1-.352.304-.24.535-.574.694-1.002.163-.433.246-.937.246-1.511 0-.867-.18-1.553-.537-2.057-.357-.504-.858-.756-1.503-.756-.644 0-1.142.255-1.494.765-.351.504-.527 1.178-.527 2.021Zm8.701-4.737h2.479v1.67h.105a2.646 2.646 0 0 1 1.002-1.318c.463-.317 1.014-.475 1.653-.475.65 0 1.206.161 1.67.483.462.323.773.76.931 1.31h.088c.2-.545.557-.978 1.072-1.3.516-.329 1.12-.493 1.81-.493.592 0 1.114.129 1.565.387a2.58 2.58 0 0 1 1.064 1.116c.252.486.378 1.07.378 1.749V42h-2.602v-5.906c.006-.528-.132-.929-.413-1.204-.275-.276-.636-.413-1.081-.413-.48 0-.861.155-1.143.465-.275.305-.41.712-.404 1.222V42h-2.531v-5.977c.006-.468-.13-.843-.404-1.125-.27-.28-.627-.421-1.073-.421-.293 0-.56.076-.8.228-.24.147-.427.358-.562.633-.135.27-.202.58-.202.931V42h-2.602v-9.545Z"/></svg>
